X:1
T:La Bataglia Taliana
T:La Bataglia Taliana
T:Herman Mathias Werrecoren
C:Herman Mathias Werrecoren
%%score [ 1 2 3 4 ]
L:1/8
Q:1/4=120
M:2/2
K:F
V:1 treble nm="Soprano" snm="S"
V:2 treble nm="Alto" snm="A"
V:3 treble-8 nm="Tenor" snm="T"
V:4 bass nm="Bass" snm="B"
V:1
 F8 | c8- | c8 | c8 | z4 c4 | A4 F4 | c4 c4 | z4 c4- | c4 f4- | f4 e2 d2 | c4 d4- | d2 c2 B2 A2 | %12
w: Si-|gno-||ri|et|ca- va-|lie- ri|d'in-|* ge-||* gn'e-||
 B4 c4 | z4 G4 | A3 G A2 B2 | c6 c2 | A4 A4 | A8 | G8 | z4 G4 | A3 G A2 B2 | c8- | c4 A4 | G8 | %24
w: for- za,|u-|di- te la vit-|to- ri-|a del|Du-|ca,|u-|di- te la vit-|to-|* ri-|a|
 z4 c4 | c3 c A2 B2 | c6 c2 | B4 A4 | G8 | F4 z4 | z4 c4 | c3 c A2 B2 | c8 | z8 | z4 c4 | %35
w: del|Du- ca di Mi-|lan Fran-|ce- sco|Sfor-|za,|del|Du- ca di Mi-|lan,||del|
 c3 c A2 B2 | c4 F4 | c6 B2 | A4 G4- | G2 F2 F4- | F4 E4 | F4 z2 A2 | A4 z2 A2 | A4 z2 A2 | %44
w: Du- ca di Mi-|lan Fran-|ce- *|* sco|_ _ Sfor-||za, al-|l'arm al-|l'arm al-|
 A2 A2 A2 F2 |[M:3/2] A8 A4 |[M:3/2] A8 A4 | A8 A4 | A8 A4 |[M:2/2] A2 A2 A2 F2 x4 | G8 | z4 c4 | %52
w: l'arm al- l'arm al-|l'arm al-|l'arm al-|l'arm al-|l'arm al-|l'arm al- l'arm al-|l'arm|o|
 A4 B4 | G4 c4 | B2 A2 G4 | G4 c4 | c2 c2 c2 B2 | c2 c2 c4 | A4 z2 A2 | A2 A2 A2 A2 | A4 z2 A2 | %61
w: trom- bet-|ti o|tam- bu- ri-|ni li|i- ni- mi- ci|son vi- ci-|ni al-|l'arm al- l'arm al-|l'arm al-|
 A4 z2 A2 | A2 A2 A2 A2 | A4 c2 A2 | A2 A2 A2 A2 | A4 c2 A2 | A2 A2 A2 A2 | A4 c2 A2 | %68
w: l'arm al-|l'arm al- l'arm al-|l'arm but- te|sel- le a ca-|val but- te|sel- le a ca-|val but- te|
 A2 A2 A2 A2 | A8 | c2 A2 A2 A2 | A8 | c2 A2 A2 A2 | A8 | c2 A2 A2 A2 | A8 | c2 A2 A2 A2 | A8 | %78
w: sel- le a ca-|val|tut'- al li sten-|dard|tut' al li sten-|dard|tut al li sten-|dard|tut' al li sten-|dard|
 F2 G2 A2 B2 | c2 d2 c4 | z2 A2 A4 | z2 A2 A4 | c2 A2 A2 A2 | A2 A2 A4 | z2 A2 A4 | c2 A2 A2 A2 | %86
w: fa ri fa ri|ra ri ron|i- nant|i- nant|tut' al- li sten-|dard i- nant|i- nant|tut'- al- li sten-|
 A2 A2 A4 | z2 A2 A2 A2 | A4 c3 A | A2 A2 A2 A2 | A8 | c3 A A2 A2 | A8 | c3 A A2 A2 | A8 | %95
w: dard i- nant|i- nant i-|nant tut'- al-|li sten dard i-|nant|tut' al li sten-|dard|tut' al li sten-|dard|
 c3 A A2 A2 | A8 | z4 c2 d2 | e2 f2 g2 e2 | f8 | f6 ef | e4 c2 d2 | e2 f2 g2 e2 | f6 ef | e4 c4- | %105
w: tut' al li sten-|dard|fa ri|ra ri ra ri|ron|fa ra ri|ron fa ri|ra ri ra- ri|ron ra ri|ron fa|
 c2 de f4 | e6 dc | c4 z2 d2 | e2 f2 g2 e2 | f6 ef | e6 dc | d4 c4- | c2 de f4 | e6 dc | d4 c4- | %115
w: _ ra ri ra|fa ra ri|ra fa|ra ri ra ri|ron fa ri|ra fa ri|ra fa|_ ra ri ra|fa ra ri|ra fa|
 c2 BA c2 B2 | A4 F2 G2 | A2 B2 c2 d2 | c4 f4- | f2 ef e2 c2 | d4 c4- | c2 BA c2 B2 | A2 G2 F4 | %123
w: _ ra ri ra ri|ron fa ri|ra ri ra ri|ron fa|_ ra ri ra ri|ron fa|_ ra ri ra ri|ra ri ron|
 c8 | A2 A2 A2 A2 | A4 c4 | A8 | z4 A4 | A2 A2 A2 A2 | A4 c4 | A8 | z4 A4 | A2 A2 A2 A2 | A4 c4 | %134
w: fan|fa ri ra ri|ra ron|fa|fan|fa ri ra ri|ra ron|fa|fan|fa ri ra ri|ra ron|
 A8 | z4 A4 | AAAA A2 c2 | A4 z2 A2 | AAAA A2 c2 | A4 z2 A2 | AAAA A2 c2 | A4 z2 A2 | AAAA A2 c2 | %143
w: fa|fan|fa ri ra ri ra ron|fa fan|fa ri ra ri ra ron|fa fan|fa ri ra ri ra ron|fa fan|fa ri ra ri ra ron|
 AAAA A2 c2 | A4 c4 | f4 c4 | A4 F4 | c8 | A8- | A8 |[M:3/2] G8 G4 | A8 G4 | c4 d8 | c8 c4 | %154
w: fa ri ra ri ra ron|fa fan|fan fan|fan fan|fan|fan.|_|Gen- te|d'ar- m'a|li sten-|dar- di|
 c8 c4 | c8 B4 | c4 d8 | c8 c4 | A4 A4 A4 | G8 G4 | G4 G8 | G8 G4 | A8 F4 | c8 A4 | G4 A8 | B4 c8 | %166
w: su su|fan- ti'al-|le ban-|die- re|gl'ad- ver- sa-|ri ven-|gon ga-|gli'ar- di|vi- a|vi- a|ca- val-|leg- gie-|
[M:2/2] c8 | z8 | z8 | z8 | z8 | z8 | z8 | z8 | z4 A2 A2 | A2 B2 A2 G2 | G4 A4- | A4 A2 B2 | %178
w: ri.||||||||Ca- pi-|tan et buon guer-|rie- ri|_ de la-|
 c4 A2 B2- | B2 A2 G4 | F4 A4- | A4 G4 | F4 G4- | G2 F2 F4- | F4 E4 | F4 z2 A2 | A4 G4 | G4 A4- | %188
w: no- bil fan-|* ta- ri-|a fan-|_ ta-|ri- *|||a da|man man-|ch'ar- di-|
 A4 G4 | G8 | G4 c4 | d4 f4 | e4 d4 | c4 d4- | d2 c2 c4- | c4 B4 | c8 | A2 B2 c4 | A4 z4 | %199
w: * t'et|fie-|ri in|ba- ta-|glia cia-|scun sti-|||a,|car- ri- az-|zi|
 A2 B2 c4 |[M:3/2] A8 A4 | A8 A4 | A8 A4 | f8 e4 | d8 c4 | A4 f4 e4 | c4 d6 c2 |"^-natural" c8 B4 | %208
w: sac- co- ma-|ni su|vi- a|vi- a|non pas-|sa- te|que- i sen-|tie- * *||
[M:2/2] c4 A4- | A4 A4 | G4 F4 | F4 E4 | F4 F4 | A2 B2 c2 B2 | A2 F2 G4 | F4 z4 | z4 A2 A2 | %217
w: ri sta-|* ti|stret' in|com- pa-|gni- a|ful- mi- na- te|can- no- nie-|ri|con la|
 A4 A4 | G4 A4- | A2 G2 F4- | F4 E4 | F2 A2 A2 A2 | G2 c2 c2 G2 | c4 z2 G2 | G4 z2 G2 | G4 GGGG | %226
w: vo- str'ar-|ti- glie-|* * ri-||a tric trac tric|trac tric trac tric|trac tif|tof tif|tof tu- re lu- re|
 G2 G2 G2 G2 | G4 GGGG | G4 c2 d2 | e2 f2 g2 e2 | f6 c2 | f4 c4 | z4 c4 | c6 c2 | A4 c4- | c4 A4 | %236
w: lof tif tof tif|tof tu- re lu- re|lof fa ri|ra ri ra ron|maz- za|maz- za|I-|ta- li-|a Du-|* ca|
 z4 c4- | c2 A2 c4 | A8- | A8 |[M:3/2] A8 A4 | A8 A4 | A8 c4 |[M:2/2] A2 B2 c2 B2 | A2 F2 G4 | %245
w: Du-|* ca Du-|ca|_|maz- za|toc- ca|da- gli|ful- mi- na- te|can- no- nie-|
 F4 z4 | z4 A2 A2 | A4 A4 | G4 A4- | A2 G2 F4- | F4 E4 | F8- | F8 |] %253
w: ri|con la|vo- str'ar-|ti- glie-|* * ri-||a.|_|
V:2
 z8 | C8 | F8- | F8 | E8 | F4 F4 | C4 F4- | F4 F4 | G4 A4- | A2 F2 G4 | A8 | F8 | z4 C4 | %13
w: |Si-|gno-||ri|et ca-|va- lie-|ri d'in|ge- *|* * gn'e|for-|za|u-|
 D3 C D2 E2 | F6 F2 | E4 E4 | D8 | C8 | z4 C4 | D3 C D2 E2 | F8- | F4 F4 | E8- | E8 | z4 E4 | %25
w: di- te la vit-|to- ri-|a del|Du-|ca,|u-|di- te la vit-|to-|* ri-|a|_|del|
 F3 E F2 G2 | A4 A4 | G4 F2 F2- | F2 ED E4 | F4 z4 | z4 E4 | F3 E F2 G2 | c8 | z8 | z4 E4 | %35
w: Du- ca di Mi-|lan Fran-|ce- sco Sfor-||za,|del-|Du- ca di Mi-|lan,||del|
 F3 E F2 G2 | A8 | z4 F4 | F4 E4 | D8 | C8 | A,8 | z2 F2 F4 | z2 F2 F4 | z2 F2 F2 F2 | %45
w: Du- ca di Mi-|lan|Fran-|ce- sco|Sfor-||za|al- l'arm|al- l'arm|al- l'arm al-|
 F2 F2 F2 C2 x4 |[M:3/2] F8 F4 | F8 F4 | F8 F4 |[M:2/2] F2 F2 F2 F2 x4 | E8 | G4 E4 | F4 D4 | E8 | %54
w: l'arm al- l'arm al-|l'arm al-|l'arm al-|l'arm al-|l'arm al- l'arm al-|l'arm|o trom-|bet- ti|o|
 D2 F2 D4 | E4 G4 | A2 G2 A2 G2 | E2 A2 G4 | F2 C2 C2 C2 | C2 C2 A,2 F,2 | F6 F2 | C2 C2 A,2 F,2 | %62
w: tam- bu- ri-|ni li|i- ni- mi- ci|son vi- ci-|ni al- l'arm al-|l'arm al- l'arm al-|l'arm al-|l'arm al- l'arm al-|
 F4 z2 F2 | F4 A2 F2 | F2 F2 F2 F2 | C4 A2 F2 | F2 F2 F2 F2 | F4 A2 F2 | F2 F2 F2 F2 | F8 | %70
w: l'am al-|l'arm but- te|sel- le a ca-|val but- te|sel- le a ca-|val but- te|sel- le a ca-|val|
 A2 F2 F2 F2 | F8 | A2 F2 F2 F2 | F8 | A2 F2 F2 F2 | F4 A2 F2 | F2 F2 F4 | F2 F2 F2 F2 | F8 | F8 | %80
w: tut' al li sten-|dard|tut' al li sten-|dard|tut' al li sten-|dard tut'- al|li sten- dard|tut' al li sten-|dard|ta|
 C4 CCCC | C2 C2 C4 | CCCC C2 C2 | C4 CCCC | C2 C2 C4 | F4 C4 | CCCC C2 C2 | C8 | F4 C4 | %89
w: ra tu- re lu- re|lu- re la|tu- re lu- re lu- re|la tu- re lu- re|lu- re la|ta ra|tu- re lu- re lu- re|la|ta- ra|
 F4 A2 F2 | F4 A2 F2 | F4 A2 F2 | F4 z2 A2 | F4 z2 A2 | F4 z2 A2 | F4 A4 | c4 A4 | F2 G2 A2 F2 | %98
w: ra ta ra|ra ta ra|ra ta ra|ra ta|ra ta|ra ta|ra ta|ra ra|fa- ri ra ri|
 G6 FG | A6 G2 | F2 G2 A2 F2 | G8 | G6 FG | A4 C2 D2 | E2 F2 G2 E2 | F6 EF | G6 FG | A2 G2 A2 B2 | %108
w: ron fa ri|ra ri|ra ri ra ri|ron|fa ri ri|ron fa ri|ra ri ra ri|ron fa- ri|ra fa ri|fa ri ra ri|
 A8 | A6 GF | G6 FG | A2 G2 A2 B2 | A6 GF | G6 FG | A8- | A8 | F,2 G,2 A,2 B,2 | C2 D2 C4 | %118
w: ron|fa ra ri|ron fa ri|ra ri ra ri|ron fa ri|ra fa ri|ron|_|fa ri ra ri|ra ri ron|
 F4 z2 A2 | A4 z2 A2 | A4 z2 A2 | A2 A2 A2 A2 | A4 z2 A2 | A4 E4 | F2 F2 F2 F2 | F4 A4 | F8 | %127
w: fa i-|nant i-|nant i-|nant i- nant i-|nant i-|nant fan|fa- ri ra ri|ra ron|fa|
 z4 E4 | F2 F2 F2 F2 | F4 A4 | F8 | z4 E4 | F2 F2 F2 F2 | F4 A4 | F8 | z4 E4 | FFFF F2 A2 | %137
w: fan|fa ri ra ri|ra ron|fa|fan|fa ri ra ri|ra ron|fa|fan|fa- ri ra- ri ra ron|
 F4 z2 F2 | FFFF F2 A2 | F4 z2 F2 | FFFF F2 A2 | F4 z2 F2 | FFFF F2 C2 | FFFF F2 C2 | F4 z2 A2 | %145
w: fa fan|fa ri ra ri ra ron|fa fan|fa ri ra ri ra ron|fa fan|fa ri ra ri ra ron|fa- ri ra ri ra ron|fa fan|
 A4 F4 | C4 A,4 | F,4 F4 | F8- | F8 |[M:3/2] E8 E4 | F8 D4 | A4 B8 | A8 A4 | G8 G4 | A8 G4 | %156
w: fan fan|fan fan|fan fan|fan.|_|Gen- te|d'ar- m'a|li sten-|dar- di|su su|fan ti'al-|
 A4 B8 | A8 A4 | C4 C4 C4 | C8 B,4 | C4 D8 | E8 E4 | F8 F4 | G8 F4 | G4 F4 C4 | D4 G8 |[M:2/2] A8 | %167
w: le ban-|die- re|gl'ad- ver- sa-|ri ven-|gon ga-|gli'ar- di|vi- a|vi- a|ca- val leg-|gie- *|ri.|
 z8 | z8 | z8 | z8 | z8 | z8 | z8 | z4 F2 F2 | F2 F2 F2 D2 | E4 F4- | F4 F2 G2 | A4 F2 G2- | %179
w: |||||||Ca- pi-|tan et buon guer-|rie- ri|_ de la|no- bil fan-|
 G2 F4 E2 | F4 F4 | F4 E4 | D4 _E4- | E4 D4 | C8 | C4 z2 F2 | F4 D4 | E4 F4- | F4 E4 | D8 | E8 | %191
w: * ta- ri-|a de|la no-|bil fan-|* ta-|ri-|a da|man man|ch'ar- di-|* t'et|fie-|ri|
 z4 F4 | G4 B4 | A4 G4 | B4 G4- | G2 F2 GFED | E8 | F2 G2 A4 | F4 z4 | F2 G2 A4 |[M:3/2] F8 F4 | %201
w: in|ba- ta-|glia cia-|scun sti-||,|car- ri- az-|zi|sac- co- ma-|ri su|
 E8 E4 | F8 F4 | A8 G4 | B8 G4 | F8 G4 | A4 B6 A2 | F4 G8 |[M:2/2] E4 F4- | F4 F4 | D4 D4 | D4 C4 | %212
w: vi- a|vi- a|non pas-|sa- te|quei sen-|tie- * *||ri sta-|* ti|stret' in|com- pa-|
 C4 C4 | F2 D2 E2 D2 | C2 D2 E4 | F4 z4 | z4 C2 C2 | F4 F4 | D4 F4- | F2 E2 D4 | C8 | C2 F2 F2 F2 | %222
w: gni- a|ful- mi- na- te|can- no- nie-|ri|con la|vo- str'ar-|ti glie-|* * ri-||a tric trac tric|
 E4 E4 | E2 E4 E2 | E4 E2 E2 | E2 E2 E2 EE | E2 C2 E4- | E2 C2 E4 | E2 E4 E2 | G8 | C4 A4- | %231
w: trac maz-|za toc- ca|da- gli o|va- len- t'ho- mi- ni|mi- la- ne-|* si maz-|za toc- ca|da-|gli Du-|
 A2 F2 A4 | F4 A4- | A2 F2 A4- | A4 F4 | C6 A,2 | C6 A,2 | E6 C2 | E6 C2 | E4 F4 |[M:3/2] F8 E4 | %241
w: * ca Du|ca maz-|* za toc-|* ca|da- gli|Du- ca|maz- za|toc- ca|da- gli|maz- za|
 F8 F4 | F8 E4 |[M:2/2] F2 D2 E2 D2 | C2 D2 E4 | F4 z4 | z4 C2 C2 | F4 F4 | D4 F4- | F2 E2 D4 | %250
w: toc- ca|da- gli|ful- mi- na- te|can- no- nie-|ri|con la|vo- str'ar-|ti- glie-|* * ri-|
 C4 C2 C2 | C2 CC (A,2 F,2) | C8 |] %253
w: a scam- pa|scam- pa li fran- *|cois|
V:3
 z8 | z8 | z8 | F8 | c8- | c8 | c8- | c8 | c4 A4 | F4 c4- | c2 c2 f4- | f2 e2 d2 c2 | d4 c4- | %13
w: |||Si-|gno-||ri|_|et ca-|va- lie-|* ri d'in-||ge- gn'e-|
"^-natural""^-natural" c2 BA B4 | c8- | c8 | z4 F4 | A3 G A2 B2 | c6 c2 | G8 | z8 | z4 F4 | %22
w: * * * for-|za|_|u-|di- te la vit-|to- ri-|a||u-|
 A3 G A2 B2 | c6 c2 | G8 | z8 | z8 | z8 | z4 c4 | c3 c A2 B2 | c8 | z8 | z4 c4 | c3 c A2 B2 | c8 | %35
w: di- te la vit-|to- ri-|a||||del-|Du- ca di Mi-|lan||del|Du- ca di Mi-|lan|
 z8 | z4 c4 | c3 c A2 B2 | c4 c4 | A4 B4 | G8 | F8 | z4 z2 c2 | c4 z2 c2 | c4 z2 c2 | c4 z2 c2 x4 | %46
w: |del|Du- ca di Mi-|lan Fran-|ce- sco|Sfor-|za|al-|l'arm al-|l'arm al-|l'arm al-|
 c4 z2 c2 x4 | c2 c2 A2 F2 x4 |[M:3/2] c8 c4 |[M:3/2] c8 c4 |[M:2/2] c8- | c8 | z8 | z4 z2 G2 | %54
w: l'arm al-|l'arm al- l'arm al-|l'arm al-|l'arm al-|l'arm|_||o|
 B2 G2 B4 | c4 e4 | f2 e2 f2 d2 | c2 f3 e ed/e/ | f8 | f8 | c8 | f8 | c8 | F2 c2 c2 c2 | %64
w: tam- bu- ri-|ni li|i- ni- mi- ci|son vi- * ci- * *|ni|ta|ra|ta|ra|but- te sel- le|
 F2 c2 c2 c2 | f2 c2 c2 c2 | F2 c2 c2 c2 | F2 c2 c4 | F2 c2 c4 | f2 c2 c2 c2 | c4 F2 c2 | %71
w: but- te sel- le|but- te sel- le|but- te sel- le|a- ca- val|a ca- val|mon- ta a ca-|val a ca-|
 c4 f2 c2 | c2 c2 c4- | c4 F2 c2 | c4 f2 c2 | c2 c2 c4- | c4 f2 c2 | c2 c2 c4- | c4 c2 B2 | %79
w: val mon- ta|a ca- val|_ a ca-|val tut' al|li sten- dard|_ tut' a|li stan- dard|_ fa- ri|
 A2 B2 c2 d2 | c4 z2 f2 | f4 z2 f2 | f4 z2 f2 | f2 f2 f2 f2 | f2 f2 f2 f2 | f4 z2 f2 | f4 z2 f2 | %87
w: ra ri ra ri|ron a-|vant a-|vant a-|vant tous gen- tilz|com- pa- gnons a-|vant a-|vant a-|
 f2 f2 f2 f2 | f2 f2 f2 f2 | f4 z4 | f2 c2 c2 c2 | c8 | f2 c2 c2 c2 | c8 | f2 c2 c2 c2 | c8 | %96
w: vant tous gen- tilz|com- pa- gnons a-|vant|tut' al li sten-|dard|tut' al li sten-|dard|tut' al li sten-|dard|
 f2 c2 c2 c2 | c4 c2 c2 | c2 c2 c4 | c2 c2 c2 c2 | c4 c2 c2 | c2 c2 c4 | c2 c2 c2 c2 | c4 c2 c2 | %104
w: tut' al li sten-|dard do be|do be dob|do be do be|dob do be|do be dob|do be do be|dob do be|
 c2 c2 c4 | c2 c2 c2 d2 | e2 f2 g2 e2 | f4 f2 c2 | c2 c2 c4 | f2 c2 c2 c2 | c8 | z4 f2 c2 | %112
w: do be dob|do be fa ri|ra ri ra ri|ron tut' al|le sten- dard|tut' al li sten-|dard|tut' al|
 c2 c2 c2 d2 | e2 f2 g2 e2 | f6 ef | e2 f2 g2 e2 | f8- | f8 | F2 G2 A2 B2 | c2 d2 c4 | %120
w: li sten- dard fa|ri ra ri ra|ron fa ri|ra ri ra ri|ron|_|fa ri ra ri|ra ri ron|
 F2 G2 A2 B2 | c2 d2 c4 | f6 ed | e4 c4 | c8 | z8 | c2 c2 c2 c2 | A4 c4 | c8 | z4 c4 | %130
w: fa ri ra ri|ra ri ron|fa fa ri|ra ron|fa||fa ri ra ri|ra ron|fa|fan|
 c2 c2 c2 c2 | A4 c4 | c8 | z4 c4 | c2 c2 c2 c2 | A4 c4 | c4 z2 f2 | cccc A2 F2 | c4 z2 f2 | %139
w: fa- ri ra ri|ra ron|fa|fan|fa ri ra ri|ra ron|fa fan|fa ri ra ri ra ron|fa fan|
 cccc A2 F2 | c4 z2 c2 | cccc A2 F2 | cccc A2 F2 | cccc A2 F2 | c4 f4 | c4 A4 | F6 c2 | %147
w: fa ri ra ri ra ron|fa fan|fa- ri ra ri ra ron|fa ri ra ri ra ron|fa ri ra ri ra ron|fa fan|fan fan|fan fan|
 A2 G2 A2 B2 | c8- | c8 |[M:3/2] c8 c4 | c8 B4 | f4 f8 | f8 f4 | e8 e4 | f8 d4 | f4 f8 | f8 f4 | %158
w: ra ri ra ri|fan.|_|Gen- te|d'ar- m'a|li sten-|dar- di|su su|fan ti'al-|le ban-|die- re|
 f4 f4 f4 | e8 d4 |"^-natural" c8 B4 | c8 c4 | c8 d4 | e8 c4 | c4 c4 c4 | f6 ed e4 | %166
w: gl'ad- ver- sa-|ri ven-|gon ga-|gli'ar- di|vi- a|vi- a|ca- val- leg-|gie- * * *|
[M:2/2] f4 c2 B2 | c2 d2 c2 B2 | c4 A4 | c6 c2 | d4 f4 | e4 d4- | d2 c2 c4- |"^-natural" c4 B4 | %174
w: ri. Gen- te|d'ar- m'al- lor- di-|nie- ri|sta- t'in|quel- la|pra- ta|_ _ ri-||
 c4 c2 c2 | c2 d2 c2 B2 | c4 c4- | c4 z4 | z8 | z8 | z4 A2 B2 | c8 | A4 B4- | B4 A4 | G8 | %185
w: a ca- pi-|tan et buon guer-|rie- ri|_|||de la|no-|bil fan-|* ta-|ri-|
 F4 z2 c2 | c4 B4 | c4 c4- | c4 c4 | B8 | c8 | z8 | z8 | z8 | f4 e4 | d8 | c8 | z8 | A2 B2 c4 | %199
w: a da|man man-|ch'ar- di-|* t'et|fie-|ri||||cia- scun|sti-|a||vi- van- die-|
 A4 z4 |[M:3/2] z8 c4 | c8 c4 | c8 c4 | c8 c4 | f8 e4 | d8 c4 | A4 f6 e2 | d2 c2 d8 |[M:2/2] c8 | %209
w: ri|su|vi- a|vi- a|non pas-|sa- te|quei sen-|tie- * *||ri|
 A4 A4 | G4 F4 | B4 G4 | F4 G4 | z8 | z4 c2 c2 | c2 d2 B2 A2 | G4 F4 | c4 d4 | B4 c4 | A4 B4 | G8 | %221
w: sta- ti|stret' in|com- pa-|gni- a||ful- mi-|na- te can- no-|nie- ri|con la|vo- str'ar-|ti- glie-|ri-|
 F4 z2 c2 | c4 z2 c2 | cccc cccc | c4 c4 | cccc c4 | c6 G2 | c6 G2 | z4 c4 | c6 c2 | A8 | z4 f4- | %232
w: a tric|trac tof|lu- re tu- re lu- re tu- re|tof tof|tu- re lu- re tof|Du- ca|Du- ca|I-|ta- li-|a|Du-|
 f2 c2 f4 | f2 c2 f4- | f2 c2 f4- | f2 c2 f4- | f4 c4 | z4 c4- | c2 A2 c4 | A8 |[M:3/2] c8 c4 | %241
w: * ca maz-|* za toc-|* ca Du-|* ca Du-|* ca|maz-|* za toc-|ca|maz- za|
 c8 c4 | c8 c4 |[M:2/2] z8 | z4 c2 c2 | c2 d2 B2 A2 | G4 F4 | c4 d4 | B4 c4 | A4 B4 | G8 | F8- | %252
w: toc- ca|da- gli||ful- mi-|na- te can- no-|nie- ri|con la|vo- str'ar-|ti- glie-|ri-|a.|
 F8 |] %253
w: _|
V:4
 z8 | z8 | z8 | z8 | C,8 | F,8- | F,8 | F,8 | z4 F,4 | D,4 C,4 | F,4 F,4 | B,8 | B,4 A,4 | G,8 | %14
w: ||||Si-|gno-||ri|et|ca- va-|lie- ri|d'in-|ge- gn'e|for-|
 F,8 | z4 C,4 | D,3 C, D,2 E,2 | F,6 F,2 | C,8 | z8 | z4 F,4 | A,3 G, A,2 B,2 | C6 C,2 | C,8- | %24
w: za|u-|di- te la vit-|to- ri-|a||u-|di- te la vit-|to- ri-|a|
 C,8 | z8 | z8 | z8 | z4 C,4 | F,3 E, F,2 G,2 | A,8 | z8 | z4 F,4 | F,3 E, F,2 G,2 | A,8 | z8 | %36
w: _||||del|Du- ca di Mi-|lan||del|Du- ca di Mi-|lan||
 z4 F,4 | F,3 E, F,2 G,2 | F,4 C,4 | D,4 B,,4 | C,8 | F,8 | F,4 F,4 | z2 F,2 F,4 | F,F,F,F, F,4 | %45
w: del|Du- ca di Mi-|lan Fran-|ce- sco|Sforf-|za|pon pon|pon pon|pi re li re lon|
 z2 F,2 F,2 F,2 x4 | F,F,F,F, F,F, F,2 x4 | z2 F,2 F,2 F,2 x4 | F,F,F,F, F,F,F,F, x4 | %49
w: pon pon pon|pi re li re li re lon|pon pon pon|li re li re li re li re|
 F,F,F,F, F,F,F,F, x4 | C,8- | C,8 | z8 | z4 z2 C,2 | G,2 F,2 G,4 | C,8 | F,2 C,2 F,2 G,2 | %57
w: li re li re li re li re|lon|_||o|tam- bu- ri-|ni|_ ni- mi- ci|
 A,2 F,2 C4 | F,8 | F,4 F,4 | z2 F,2 F,4 | F,F,F,F, F,F, F,2 | F,F,F,F, F,F, F,2 | %63
w: son vi- ci|ni|pon pon|pon pon|pi re li re li re lon|pi re li re li re lon|
 F,F,F,F, F,F, F,2 | z2 F,2 F,2 F,2 | F,F,F,F, F,F, F,2 | F,F,F,F, F,F, F,2 | F,F,F,F, F,F, F,2 | %68
w: pi re li re li re lon|pon pon pon|pi re li re li re lon|pi re li re li re lon|pi re li re li re lon|
 F,F,F,F, F,F, F,2 | F,F,F,F, F,F, F,2 | z2 F,2 F,2 F,2 | F,F,F,F, F,F, F,2 | F,F,F,F, F,F, F,2 | %73
w: pi re li re li re lon|pi re li re li re lon|pon pon pon|pi re li re li re lon|pi re li re li re lon|
 A,2 F,2 F,2 F,2 | F,2 F,2 F,4 | A,2 F,2 F,2 F,2 | F,2 F,2 F,4 | F,2 F,2 F,4 | F,2 F,2 F,2 F,2 | %79
w: but- te sel- le|a ca- val|but- te sel- le|a ca- val|a ca val|tut' al li sten-|
 F,4 F,2 F,2 | F,2 F,2 F,4 | F,F,F,F, F,4 | F,4 F,F,F,F, | F,4 F,F,F,F, | F,4 F,F,F,F, | %85
w: dard tut' al|li sten- dard|do be do be dob|dob do e do be|dob do be do be|dob do be do be|
 F,4 F,F,F,F, | F,2 F,2 F,4 | F,F,F,F, F,2 F,2 | F,4 F,F,F,F, | F,2 F,2 F,4 | F,F,F,F, F,4 | %91
w: dob do be do be|do be dob|do be do be do be|dob do be do be|do be dob|do be do be dob|
 F,F,F,F, F,4 | F,2 F,2 F,4 | F,F,F,F, F,4 | F,F,F,F, F,4 | F,F,F,F, F,4 | F,8 | F,8 | C,8 | F,8 | %100
w: do be do be dob|do be dob|do be do be dob|do be do be dob|do be do be dob|ta|ra|fa|ra|
 F,F,F,F, F,2 F,2 | C,8- | C,8 | F,8 | C,8 | F,F,F,F, F,2 F,2 | C,4 C,4 | F,4 F,4 | A,4 A,4 | %109
w: ta re la re ta ra|ra|_|ta|ra|ta re la re la re|fan fan|fan fan|fan fan|
 F,4 F,4 | C,8 | F,4 F,4 | A,4 F,4 | C,8 | F,4 F,2 F,2 | A,4 A,4 | F,8- | F,8 | F,4 F,2 F,2 | %119
w: fan fan|fan|fan fan|fan fan|fa|fan fan fan|fan fan|fan|_|fan fan fan|
 A,4 A,4 | F,8- | F,8 | F,4 F,2 F,2 | A,4 A,4 | F,8 | z8 | F,2 F,2 F,2 F,2 | F,4 A,4 | F,8 | %129
w: fan fan|fan|_|fan fan fan|fan fan|fan||fa ri ra ri|ra ron|fa|
 z4 F,4 | F,2 F,2 F,2 F,2 | F,4 A,4 | F,8 | z4 F,4 | F,2 F,2 F,2 F,2 | F,4 A,4 | F,4 z2 F,2 | %137
w: fan|fa ri ra ri|ra ron|fa|fan|fa ri ra ri|ra ron|fa fan|
 F,F,F,F, F,2 A,2 | F,4 z2 F,2 | F,F,F,F, F,2 A,2 | F,4 z2 F,2 | F,F,F,F, F,2 A,2 | %142
w: fa ri ra ri ra ron|fa fan|fa ri ra ri ra ron|fa fan|fa ri ra ri ra ron|
 F,F,F,F, F,2 A,2 | F,F,F,F, F,2 A,2 | F,8- | F,8 | z4 A,4 | C4 A,4 | F,8- | F,8 |[M:3/2] C,8 C,4 | %151
w: fa ri ra ri ra ron|fa ri ra ri ra ron|fa|_|fan|fan fan|fan.|_|Gen- te|
 F,8 G,4 | F,4 B,8 | F,8 F,4 | C,8 C,4 | F,8 G,4 | F,4 B,8 | F,8 F,4 | F,4 F,4 F,4 | C,8 G,4 | %160
w: d'ar- m'a|li sten-|dar- di|su su|fan ti'al-|le ban-|die- re|gl'ad- ver- sa-|ri ven-|
 C,4 G,8 | C,8 C,4 | F,8 D,4 | C,8 F,4 | E,4 F,8 | D,4 C,8 |[M:2/2] F,4 F,2 G,2 | A,2 B,2 A,2 G,2 | %168
w: gon ga-|gli'ar- di|vi- a|vi- a|ca- val-|leg- gie-|ri. Gen- te|d'ar- m'al- lor di-|
 A,4 F,4 | F,8- | F,4 F,4 | G,6 F,2 | E,4 F,4 | D,8 | C,4 F,2 F,2 | F,2 B,,2 F,2 G,2 | C,4 F,4- | %177
w: nie- ri|sta-|* t'in|quel- la|pra- ta|ri-|a ca- pi-|tan et buon guer-|rie- ri|
 F,4 z4 | z8 | z8 | D,2 E,2 F,4- | F,4 C,4 | F,4 _E,4- | E,4 F,4 | C,8 | F,4 z2 F,2 | F,4 G,4 | %187
w: _|||de la no-||bil fan-|* ta|ri-|a da|man man-|
 C,4 F,4- | F,4 C,4 | G,8 | C,8 | z8 | z8 | z8 | B,4 C4 | G,8 | C,8 | z8 | F,2 G,2 A,4 | F,4 z4 | %200
w: ch'ar- di-|* t'et|fie-|ri||||cia- scun|sti-|a||vi- van- die-|ri|
[M:3/2] z8 F,4 | A,8 A,4 | F,8 F,4 | F,8 C,4 | B,,8 C,4 | D,8 E,4 | F,4 B,6 C2 | A,4 G,8 | %208
w: su|vi- a|vi- a|non pas-|sa- te|quei sen-|tie- * *||
[M:2/2] C,4 F,4- | F,4 F,4 | G,4 D,4 | B,,4 C,4 | F,4 F,4 | z8 | z4 C,2 C,2 | F,2 D,2 G,2 F,2 | %216
w: ri sta-|* ti|stret' in|com- pa-|gni- a||ful- mi-|na te can- no-|
 E,4 F,4 | F,4 D,4 | G,4 F,4 | F,4 B,,4 | C,8 | F,8 | C,8 | C,4 z4 | C,4 C,4 | C,2 C,4 C,2 | C,8 | %227
w: nie- ri|con la|vo- str'ar-|ti- glie-|ri-|a|tif|tof|dif dof|dif dof dif|dof|
 z2 C,2 C,2 C,2 | C,4 C,4 | C,8 | F,4 F,4 | z2 F,2 F,4 | F,4 F,2 F,2- | F,2 F,2 F,4 | %234
w: dif dof dif|dof dif|dof|dif dof|dif df|dif dif dof|_ dif dof|
 F,F,F,F, F,4 | F,8 | F,8 | C,8 | C6 F,2 | C4 F,4 |[M:3/2] F,8 A,4 | F,8 F,4 | F,8 C,4 | %243
w: do be do be dof|dof|Du-|ca|Du- ca|Du- ca|maz- za|toc- ca|da- gli|
[M:2/2] z8 | z4 C,2 C,2 | F,2 D,2 G,2 F,2 | E,4 F,4 | F,4 D,4 | G,4 F,4 | F,4 B,,4 | C,8 | F,8- | %252
w: |ful- mi-|na- te can- no-|nie- ri|con la|vo- str'ar-|ti- glie-|ri-|a.|
 F,8 |] %253
w: _|

